img/header/search2.svg

<svg viewBox="0 0 511.96 512.05" xmlns="http://www.w3.org/2000/svg"><path d="m505 442.7-99.7-99.7a24 24 0 0 0 -17-7h-16.3a207 207 0 0 0 44-128c0-114.9-93.1-208-208-208s-208 93.1-208 208 93.1 208 208 208a207 207 0 0 0 128-44v16.3a24 24 0 0 0 7 17l99.7 99.7a23.9 23.9 0 0 0 33.9 0l28.3-28.3a24.11 24.11 0 0 0 .1-34zm-297-106.7a128 128 0 1 1 128-128 127.93 127.93 0 0 1 -128 128z" fill="#f47920"/></svg>

<svg xmlns="http://www.w3.org/2000/svg" viewBox="0 0 511.96 512.05"><defs><style>.cls-1{fill:#f47920;}</style></defs><title>Ресурс 1</title><g id="Слой_2" data-name="Слой 2"><g id="Слой_1-2" data-name="Слой 1"><path class="cls-1" d="M505,442.7,405.3,343a24,24,0,0,0-17-7H372a207,207,0,0,0,44-128C416,93.1,322.9,0,208,0S0,93.1,0,208,93.1,416,208,416a207,207,0,0,0,128-44v16.3a24,24,0,0,0,7,17L442.7,505a23.9,23.9,0,0,0,33.9,0l28.3-28.3A24.11,24.11,0,0,0,505,442.7ZM208,336A128,128,0,1,1,336,208,127.93,127.93,0,0,1,208,336Z"/></g></g></svg>
